X: 10432
T: MARY'S DREAM
Q: "Slow"
%R: air
B: "Edinburgh Repository of Music" v.1 p.43 #2
F: http://digital.nls.uk/special-collections-of-printed-music/pageturner.cfm?id=87776133
Z: 2015 John Chambers <jc:trillian.mit.edu>
M: C
L: 1/8
K: G
d |\
G2A2 B3c | (d>e)(d>g) d3c/B/ |\
(AG)(AB) c3d/e/ | d<B (G>B) A3(B/c/) |\
d2d2 d3(e/f/) | g2g2 g3(f/e/) |\
(dB)(AB) c3(d/e/) | (d<B) (A>B) G2zB |
e2f2 g3G | A2B2 E2zG |\
B>AB>c d2d2 | g3^c d2ze/=c/ |\
B2B2 B3c/A/ | G2G2 G3B/c/ |\
(d>e)(d>g) (ga)Hb (g/e/) | (d<B) (A>B) G2 |]
